X:1
T:"Cruisin'"
C:Jig composed by Davy Rogers
L:1/8
Q:100
K:Gm
M:6/8
D |: GBD GFD | EFE DFA | GBD GBd | gab aga |
gdg fdc | BGB AFF | GDG FDC |1 DGF G2D :|2 DGF G2A |
|: B2F FBF | BdB cAF | GBD FBc | dBc AFE |
DGB cBA | BfB AFA | GBG FDC |1 DGF G2A :|2 DGF G3 ||

